X:1
T:James Byrne's
H:Maids of Tullyknockbrine, The
H:Rat in the Thatch, The
R:reel
D:Paddy Glackin: In Full Spate
D:Paul McGrattan &amp; Paul O'Shaughnessy: Within a Mile of Dublin
D:De Danann: Jacket of Batteries
Z:id:hn-reel-277
M:C|
K:G
G2dG BdGB|dGBd ecAF|G2dG Bcde|1 dBcA BGAF:|2 dBcA BG~G2|]
egfg egfe|d2fd Adfd|egfg efga|bgaf geed|
efga bge^c|defg afdB|~G3A Bcde|dBcA BGFA|]
</abc>
